assets/images/payments/ingenico-dark.svg

<svg width="100" height="60" viewBox="0 0 100 60" version="1.1" xmlns="http://www.w3.org/2000/svg" xmlns:xlink="http://www.w3.org/1999/xlink"><title>Ingenico-dark</title><desc>Created with Sketch.</desc><g id="Dark-Payment-badges" stroke="none" stroke-width="1" fill="none" fill-rule="evenodd" transform="translate(-290.000000, -989.000000)"><g id="Ingenico-dark" transform="translate(290.000000, 989.000000)"><rect id="Rectangle-75" fill="#263779" x="0" y="0" width="100" height="60" rx="4"/><polygon id="Fill-4" fill="#FFFFFE" points="11.5496562 24.9720833 14.0090937 24.9720833 14.0090937 36.0258611 11.5496562 36.0258611"/><polygon id="Fill-5" fill="#FFFFFE" points="17.1065469 19.9621944 60.915125 19.9621944 60.915125 21.7093611 17.1065469 21.7093611"/><path d="M35.5346563,27.1213611 C35.1227188,27.0810278 34.6461875,27.0015833 33.9313906,27.0015833 C31.8631719,27.0015833 31.0453906,28.5183611 31.0453906,30.5790278 C31.0453906,33.21475 32.0874219,34.1271389 33.7065313,34.1271389 C34.4450938,34.1271389 35.0593438,33.8221944 35.5346563,33.5826389 L35.5346563,27.1213611 L35.5346563,27.1213611 Z M33.2165938,40.5890278 C31.6596406,40.5890278 30.2312656,40.2596389 29.3513281,39.9956389 L29.7273125,37.89525 C30.6675781,38.1103611 32.0368438,38.31875 32.8028281,38.31875 C34.4450938,38.31875 35.5492813,38.0315278 35.5492813,36.0918611 C35.5870625,36.0521389 35.5492813,35.5394167 35.5492813,35.4825833 C35.0465469,35.8908056 34.3323594,36.2116389 33.5791719,36.2116389 C31.2227188,36.2116389 28.5999688,35.5644722 28.5999688,30.5631389 C28.5999688,26.7931944 31.0210156,24.7869167 33.9551563,24.7869167 C35.1227188,24.7869167 36.3902188,24.9568056 37.9959219,25.2208056 L37.9959219,36.3699167 C37.9959219,39.46825 35.4005938,40.5890278 33.2165938,40.5890278 L33.2165938,40.5890278 Z" id="Fill-6" fill="#FFFFFE"/><path d="M45.0585781,26.7388056 C44.0049687,26.7388056 42.9135781,27.5039167 42.8008437,29.3641389 L46.9007187,29.3641389 C46.9153437,27.6628056 46.1103594,26.7388056 45.0585781,26.7388056 L45.0585781,26.7388056 Z M42.7484375,31.2500278 C42.7630625,33.6626944 44.154875,34.0073611 46.0000625,34.0073611 C46.7136406,34.0073611 47.9689531,33.90225 48.7824687,33.7176944 L49.1590625,35.7881389 C48.3455469,36.0668056 46.7885937,36.2116389 45.5472969,36.2116389 C42.3352812,36.2116389 40.289,35.0211944 40.289,30.6829167 C40.289,26.1863611 42.3870781,24.7086944 45.2846562,24.7086944 C48.2553594,24.7086944 49.4594844,26.8176389 49.4594844,30.2740833 L49.4594844,31.2500278 L42.7484375,31.2500278 L42.7484375,31.2500278 Z" id="Fill-7" fill="#FFFFFE"/><polygon id="Fill-8" fill="#FFFFFE" points="64.0113594 24.9720833 66.4829844 24.9720833 66.4829844 36.0258611 64.0113594 36.0258611"/><path d="M76.5169531,27.3596944 C75.842375,27.0810278 75.2013125,26.8818056 74.1714688,26.8818056 C72.5919688,26.8818056 71.3896719,27.8473611 71.3896719,30.4458056 C71.3896719,32.9379167 72.0027031,34.0458611 74.7132031,34.0458611 C75.5523125,34.0458611 76.1184219,33.8875833 76.7972656,33.7824722 L77.13425,35.8523056 C76.329875,36.0258611 75.6552969,36.2116389 74.5395313,36.2116389 C70.4110156,36.2116389 68.8528438,34.5341389 68.8528438,30.40425 C68.8528438,26.8970833 70.9143594,24.6921944 74.1714688,24.6921944 C75.6290938,24.6921944 76.5565625,24.9971389 77.2335781,25.3949722 L76.5169531,27.3596944" id="Fill-9" fill="#FFFFFE"/><path d="M83.56925,26.8176389 C81.5491719,26.8176389 81.0104844,28.5996389 81.0104844,30.5246389 C81.0104844,32.5846944 81.6247344,34.1271389 83.6052031,34.1271389 C85.611875,34.1271389 86.1005937,32.5034167 86.1005937,30.4983611 C86.1005937,28.6136944 85.611875,26.8176389 83.56925,26.8176389 L83.56925,26.8176389 Z M83.4559062,36.2739722 C80.2938594,36.2739722 78.5272812,34.14975 78.5272812,30.6040833 C78.5272812,26.8818056 80.5729531,24.6921944 83.6204375,24.6921944 C87.045125,24.6921944 88.6368125,26.8176389 88.6368125,30.4983611 C88.6368125,34.3110833 86.4174687,36.2739722 83.4559062,36.2739722 L83.4559062,36.2739722 Z" id="Fill-10" fill="#FFFFFE"/><path d="M14.1967812,20.8366944 C14.1967812,21.6134167 13.559375,22.2514167 12.7854687,22.2514167 C11.9987656,22.2514167 11.3631875,21.6134167 11.3631875,20.8366944 C11.3631875,20.0495833 11.9987656,19.4109722 12.7854687,19.4109722 C13.559375,19.4109722 14.1967812,20.0495833 14.1967812,20.8366944" id="Fill-11" fill="#FFFFFE"/><path d="M66.6688437,20.8366944 C66.6688437,21.6134167 66.0326562,22.2514167 65.2471719,22.2514167 C64.4629062,22.2514167 63.8370781,21.6134167 63.8370781,20.8366944 C63.8370781,20.0495833 64.4629062,19.4109722 65.2471719,19.4109722 C66.0326562,19.4109722 66.6688437,20.0495833 66.6688437,20.8366944" id="Fill-12" fill="#FFFFFE"/><path d="M23.0302813,24.6689722 C21.4745469,24.6689722 20.2947969,25.6039722 19.5940156,26.1313611 L19.5940156,26.1050833 C19.5763437,26.1344167 19.5464844,26.1551944 19.5190625,26.1839167 C19.2807969,25.2978056 18.6427812,25.0393056 18.0675312,24.9720833 L17.1102031,24.9720833 L17.1102031,36.0258611 L19.5940156,36.0258611 L19.5940156,27.9261944 C20.0827344,27.6481389 21.2119062,26.9765278 22.24175,26.9765278 C23.6323438,26.9765278 23.9193594,27.7031389 23.9193594,29.30975 L23.9193594,36.0258611 L26.3794062,36.0258611 L26.3794062,29.0060278 C26.3794062,26.7388056 26.1783125,24.6689722 23.0302813,24.6689722" id="Fill-13" fill="#FFFFFE"/><path d="M57.5812344,24.6689722 C56.0273281,24.6689722 54.8372187,25.6039722 54.1455781,26.1313611 L54.1455781,26.1050833 C54.1163281,26.1344167 54.0895156,26.1551944 54.0694062,26.1839167 C53.8213906,25.2978056 53.1943437,25.0393056 52.6075156,24.9720833 L51.662375,24.9720833 L51.662375,36.0258611 L54.1455781,36.0258611 L54.1455781,27.9261944 C54.6336875,27.6481389 55.76225,26.9765278 56.7933125,26.9765278 C58.1845156,26.9765278 58.4623906,27.7031389 58.4623906,29.30975 L58.4623906,36.0258611 L60.9309688,36.0258611 L60.9309688,29.0060278 C60.9309688,26.7388056 60.7195156,24.6689722 57.5812344,24.6689722" id="Fill-14" fill="#FFFFFE"/></g></g></svg>

<svg width="100" height="60" xmlns="http://www.w3.org/2000/svg"><g fill="none" fill-rule="evenodd"><rect fill="#263779" width="100" height="60" rx="4"/><path fill="#FFFFFE" d="M11.55 24.972h2.46v11.054h-2.46zm5.557-5.01h43.808v1.747H17.107zm18.428 7.159c-.412-.04-.889-.12-1.604-.12-2.068 0-2.886 1.517-2.886 3.578 0 2.636 1.042 3.548 2.662 3.548.738 0 1.352-.305 1.828-.544V27.12zM33.217 40.59c-1.557 0-2.986-.33-3.866-.593l.376-2.1c.94.214 2.31.423 3.076.423 1.642 0 2.746-.287 2.746-2.227.038-.04 0-.553 0-.61-.502.409-1.217.73-1.97.73-2.356 0-4.979-.648-4.979-5.649 0-3.77 2.421-5.776 5.355-5.776 1.168 0 2.435.17 4.04.434V36.37c0 3.098-2.594 4.219-4.778 4.219zm11.842-13.851c-1.054 0-2.145.765-2.258 2.625h4.1c.014-1.701-.79-2.625-1.842-2.625zm-2.31 4.511c.014 2.413 1.406 2.757 3.251 2.757.714 0 1.969-.105 2.782-.29l.377 2.071c-.813.279-2.37.424-3.612.424-3.212 0-5.258-1.19-5.258-5.53 0-4.496 2.098-5.973 4.996-5.973 2.97 0 4.174 2.109 4.174 5.565v.976h-6.71zm21.262-6.278h2.472v11.054h-2.472zm12.506 2.388c-.675-.279-1.316-.478-2.346-.478-1.579 0-2.781.965-2.781 3.564 0 2.492.613 3.6 3.323 3.6.84 0 1.405-.158 2.084-.264l.337 2.07c-.804.174-1.479.36-2.594.36-4.129 0-5.687-1.678-5.687-5.808 0-3.507 2.061-5.712 5.318-5.712 1.458 0 2.386.305 3.063.703l-.717 1.965m7.053-.542c-2.02 0-2.56 1.782-2.56 3.707 0 2.06.615 3.602 2.595 3.602 2.007 0 2.496-1.624 2.496-3.629 0-1.884-.49-3.68-2.532-3.68zm-.114 9.456c-3.162 0-4.929-2.124-4.929-5.67 0-3.722 2.046-5.912 5.093-5.912 3.425 0 5.017 2.126 5.017 5.806 0 3.813-2.22 5.776-5.181 5.776zM14.197 20.837a1.42 1.42 0 01-1.412 1.414 1.42 1.42 0 110-2.84c.774 0 1.412.639 1.412 1.426m52.472 0a1.42 1.42 0 01-1.422 1.414c-.784 0-1.41-.638-1.41-1.414a1.415 1.415 0 112.832 0M23.03 24.669c-1.555 0-2.735.935-3.436 1.462v-.026c-.018.03-.048.05-.075.079-.238-.886-.876-1.145-1.451-1.212h-.958v11.054h2.484v-8.1c.489-.278 1.618-.95 2.648-.95 1.39 0 1.677.727 1.677 2.334v6.716h2.46v-7.02c0-2.267-.2-4.337-3.349-4.337m34.551 0c-1.554 0-2.744.935-3.435 1.462v-.026c-.03.03-.056.05-.077.079-.248-.886-.875-1.145-1.461-1.212h-.946v11.054h2.484v-8.1c.488-.278 1.616-.95 2.647-.95 1.392 0 1.67.727 1.67 2.334v6.716h2.468v-7.02c0-2.267-.211-4.337-3.35-4.337"/></g></svg>
